X:1
T:Ego sum ipse
T:Sixtus Dietrich
T:Source : Bicinia---Tomus I---Wittemberg---G.Rhau---1545. Editor : André Vierendeels (18/06/17).
T:Notes : Original clefs : G3, C3 Original note values have been halved Editorial accidentals above the staff Dotted brackets indicate black notes  
T:Ego sum ipse
T:©
T:©
T:©
C:Sixtus Dietrich
Z:©
%%score [ 1 2 ]
L:1/8
Q:1/4=120
M:4/4
K:C
V:1 treble nm="Soprano" snm="S"
V:2 treble nm="Alto" snm="A"
V:1
 z4 B4- | B4 B4 | B4 c4- | c2 B2 A4 | d6 c2 | B2 A2 G4 | z2 G2 A2 c2- | c2 BA B2 A2 | %8
w: E-|* go|sum, e-|* go- sum|ip- *|* * se,|qui de- le-|* * * o _|
 A2 GF G2 A2- | AF G2 A2 D2- | D2 A2 B3 c | d3 c AB c2- | cB A4 G2 | A4 z4 | A4 B4 | B4 c4- | %16
w: in- * * i- qui-|* * * ta- tes|_ tu- as pro-||* * * pter|me,|et pec-|ca- to-|
 c2 B2 A2 G2 | A6 G2 | F2 E2 D4 | z2 G2 A2 B2 | c2 d3 c BA | G2 c4 B2 | c4 z2 c2 | c2 c2 c4 | %24
w: * * rum tu-|o- *|* rum non|re- cor- *||* * da-|bor, re-|duc in me-|
 A4 B4 | G4 A2 c2- | cB A4 G2 | A8 | z2 E2 F2 D2 | E3 F G2 E2 | F2 D2 E3 F | G2 B2 c3 B | %32
w: ||* * * ri-|am|et iu- di-|ce- mur si- mul,|nar- ra si _|_ quid _ _|
 A2 G4 F2 | G4 z4 | z2 G2 E2 F2 | G2 D2 E4 | D2 G2 E2 F2 | G2 A2 B2 c2 | B2 c4 BA | G8 |] %40
w: _ _ ha-|bes,|ut iu- sti-|fi- ce- ris,|ut iu- sti- *||fi- ce- * *|ris.|
V:2
 E8- | E8 | E4 E4 | F6 E2 | D4 G4- | G2 F2 F2 D2 | C8 | z2 C2 D2 F2- | F2 ED C2 D2- | %9
w: E-||go sum,|e- go|sum ip-||se|qui de- le-|* * * o in-|
 D2 CB, C2 D2- | DB, C2 D2 G,A, | B,CDE F2 E2- | ED C2 B,4 | A,8 | z4 D4 | E4 E4 | F6 E2 | %17
w: * * * i- qui-|* * ta- tes tu- *|* * * * as pro-|* * * pter|me,|et|pec- ca-|to- rum|
 D2 C2 D4- | D2 C2 B,2 A,2 | G,4 C2 D2 | E2 F2 G3 F | ED C2 D4 | C8 | z2 F2 F2 F2 | F4 D4 | %25
w: tu- o- *||rum non re-|cor- da- * *||bor,|re- duc me|in me-|
 E4 C2 A,2 | C3 D B,4 | A,2 F3 E D2- | D2 C2 D4 | z2 A,2 B,2 G,2 | A,3 B, C2 A,2 | B,2 G,2 A,3 B, | %32
w: mo- * *|* ri- am,|me- mo- * *|* ri- am|et iu- di-|ce- mur si- mul,|nar- ra si _|
 C2 G,2 A,4 | G,2 C2 A,2 B,2 | C2 G,2 A,4 | G,2 B,2 G,2 A,2 | B,3 G, C2 D2 | E2 F2 E2 C2 | %38
w: _ quid ha-|bes, ut iu- sti-|fi- ce- *|ris, ut iu- sti|fi- * * ce-||
 D2 E4 D2 | E8 |] %40
w: |ris.|

